X: 3459
T: Betty Black
R: barndance
M: 4/4
K: Dmajor
A2|:GFED A2 d2|GFED A,2 D2|GFED A2 d2|1 A,2 D2 D2 F2:|2 A,2 D2 D2||
g2|:fefg a2 A2|BABc d2 D2|fefg a2 A2|1 BABc d2- dg|2 BABc d4||
|:EFEF G2 FE|FDFA dAFD|EFEF G2 FE|1 D2 d2 d3 D:|2 D2 d2 d2||
g2|:f4 f4|Adfd edfd|f4 f4|Acec d2 dg:|
|:f2 d2 dcBA|FAGB Aceg|f2 d2 dcBA|1 A,2 D2 D2 g2:|2 A,2 D2 D2||
c2|:defg agfe|f/g/a ec dcBA|defg agfe|1 f/g/a ec d3 c:|2 f/g/a ec d4||

